!!!!SEGMENT: pl-sa--400-a-viii-40--001-003_pugnani-gaetano--trio-in-a-allegro.krn
!!!cenid: 17xx:2023
!!!COM: Pugnani, Gaetano
!!!COM-rismID: pe30002608
!!!CDT: 1731/11/27-1798/07/15
!!!CNT: Italian
!!!OPR: Trio in A
!!!OTL: Allegro
!!!OMV: 003
!!!PDT:
!!!AGN: Secular
!!!SMS-siglum: PL-SA
!!!SMS-shelfmark: 400/A VIII 40
!!!SMS-shelfwork: 001-003 M
!!!SMS-variant:
!!!SMS-altvar:
!!!NIFC-rismSourceID: 1001104646
!!!NIFC-rismChildID: 1001104646
!!!NIFC-islandoraID: none
!!!URL-pdf-islandora:
!!!URL-scan: https://bc.bdsandomierz.pl/dlibra/publication/1703/edition/1671/content @EN{Scan in the Sandomierz Diocese Digital Library} @PL{Skany w portalu Cyfrowa Biblioteka Diecezjalna w Sandomierzu}
!!!IIIF:
!!!ONB-nifc: UWAGA: pierwsze Trio. Części: 1. Allegro non tanto, 2. Largo, 3. Allegro
!!!AIN: 1 empty 2 violn
!!!key:
**kern	**kern	**dynam	**kern	**dynam
*part3	*part2	*part2	*part1	*part1
*staff3	*staff2	*	*staff1	*
*Iempty	*Ivioln	*	*Ivioln	*
*I"Baſso.	*I"Violino 2do	*	*I"Violino 1mo	*
*I'cb	*I'vl II	*	*I'vl I	*
*clefF4	*clefG2	*	*clefG2	*
*k[f#c#g#]	*k[f#c#g#]	*	*k[f#c#g#]	*
*A:	*A:	*	*A:	*
*M3/4	*M3/4	*	*M3/4	*
*>[A,A,B,B]	*>[A,A,B,B]	*	*>[A,A,B,B]	*
=1	=1	=1	=1	=1
*>A	*>A	*	*>A	*
!LO:TX:t=P:problem=zgodnie z RISM "b part missing."	!LO:TX:a:B:t=Allo	!	!LO:TX:a:B:t=Allo	!
2.ryy	2A/	.	4ee\	.
*	*	*	*Xtuplet	*
!	!	!	!LO:TUP:a:problem=klamra łukowa	!
.	.	.	12aa\L	.
.	.	.	12gg#\	.
.	.	.	12ff#\J	.
.	4a/	.	8.ee\L	.
.	.	.	16ee\Jk	.
=2	=2	=2	=2	=2
2.ryy	2g#/	.	4ee\	.
.	.	.	4b\	.
.	4a/	.	4cc#\	.
=3	=3	=3	=3	=3
2.ryy	4b\	.	4.cc#\	.
.	4g#/	.	.	.
.	.	.	16b\LL	.
.	.	.	16cc#\JJ	.
.	4e/	.	8.ee\L	.
.	.	.	16dd\Jk	.
=4	=4	=4	=4	=4
2.ryy	4a/	.	8cc#\L	.
.	.	.	8ee\J	.
.	4e/	.	8g#/L	.
.	.	.	8b/J	.
.	4A/	.	4a/	.
=5	=5	=5	=5	=5
2.ryy	4ee\	.	2A/	.
*	*Xtuplet	*	*	*
!	!LO:TUP:a:problem=klamra łukowa	!	!	!
.	12aa\L	.	.	.
.	12gg#\	.	.	.
.	12ff#\J	.	.	.
.	8.ee\L	.	4a/	.
.	16ee\Jk	.	.	.
=6	=6	=6	=6	=6
2.ryy	4ee\	.	2g#/	.
.	4dd\	.	.	.
!	!	!	!LO:N:vis=2.	!
.	4cc#\	.	4a/	.
=7	=7	=7	=7	=7
!	!LO:TUP:a:problem=klamra łukowa	!	!	!
2.ryy	12b\L	.	2d/	.
.	12cc#\	.	.	.
.	12b\J	.	.	.
!	!LO:TUP:a:problem=klamra łukowa	!	!	!
.	12ff#\L	.	.	.
.	12ee\	.	.	.
.	12dd\J	.	.	.
!	!LO:TUP:a:problem=klamra łukowa	!	!	!
.	12cc#\L	.	4d#X/	.
.	12b\	.	.	.
.	12a\J	.	.	.
=8	=8	=8	=8	=8
.	8qqa/	.	.	.
2.ryy	2.g#/	.	2.e/	.
=9	=9	=9	=9	=9
!	!LO:N:vis=0r	!	!	!
2.ryy	1.r	.	4ee\	.
.	.	.	8.ee\L	.
.	.	.	16ff#\Jk	.
.	.	.	4ff#\	.
=10	=10	=10	=10	=10
*	*	*	*2\right	*
.	.	.	8qqff#/	.
2.ryy	.	.	2.gg#\	.
=11	=11	=11	=11	=11
2.ryy	4ee\	.	4gg#\	.
.	8.ee\L	.	8.gg#\L	.
.	16ff#\Jk	.	16aa\Jk	.
.	4ff#\	.	4aa\	.
!	!	!	!LO:LB:g=original	!
=12	=12	=12	=12	=12
*	*2\right	*	*	*
.	8qqff#/	.	8qqaa/	.
2.ryy	2.gg#\	.	2.bb\	.
=13	=13	=13	=13	=13
2.ryy	4gg#\	.	4bb\	.
!	!LO:TUP:a:problem=klamra łukowa	!	!LO:TUP:a:problem=klamra łukowa	!
.	12gg#\L	.	12bb\L	.
.	12ee\	.	12gg#\	.
.	12ff#\J	.	12aa\J	.
!	!LO:TUP:a:problem=klamra łukowa	!LO:TUP:a:problem=klamra łukowa	!	!
.	12gg#\L	.	12bb\L	.
.	12ee\	.	12gg#\	.
.	12gg#\J	.	12bb\J	.
=14	=14	=14	=14	=14
2.ryy	4ff#\	.	4aa\	.
!	!	!	!LO:TUP:a:problem=klamra łukowa	!
.	12ff#|>\L	.	12aa\L	.
.	(12dd#X\	.	12ff#\	.
.	12ee\J)	.	12gg#\J	.
!	!	!	!LO:TUP:a:problem=klamra łukowa	!
.	12ff#|>\L	.	12aa\L	.
.	(12dd#\	.	12ff#\	.
.	12ff#\J)	.	12aa\J	.
!	!LO:LB:g=original	!	!	!
=15	=15	=15	=15	=15
2.ryy	4ee\	.	12gg#\L	.
.	.	.	12aa\	.
.	.	.	12bb\J	.
.	4b\	.	4ee\	.
.	4B/	.	4dd#X\	.
=16	=16	=16	=16	=16
!	!	!	!LO:SIC:v:s=8qdd#/	!
.	.	.	8qqdd/	.
2.ryy	2.e/	.	2.ee\	.
=17	=17	=17	=17	=17
.	.	.	8qdd/	.
2.ryy	8r	.	(32cc#\LLL	.
.	.	.	32b\JJ	.
.	.	.	8.cc#\J)	.
.	8A/L	.	.	.
.	8c#/	.	4A/	.
.	8e/	.	.	.
.	8c#/	.	4r	.
.	8A/J	.	.	.
=18	=18	=18	=18	=18
.	.	.	8qcc#/	.
2.ryy	8r	.	(8.b\L	.
.	8e/L	.	.	.
.	.	.	32a\LL	.
.	.	.	32b\JJJ)	.
.	8g#/	.	4e/	.
.	8b/	.	.	.
.	8g#/	.	4r	.
.	8e/J	.	.	.
=19	=19	=19	=19	=19
2.ryy	4a\	.	12ff#\L	.
.	.	.	12gg#\	.
.	.	.	12aa\J	.
.	4b\	.	4ee\	.
!	!	!	!LO:TX:t=P:global:problem=niejednoznaczny zapis ozdobnika [przyjęto mordent górny]	!
.	4B/	.	4dd#Xm\	.
=20	=20	=20	=20	=20
!	!	!	!LO:SIC:v:s=8qdd#	!
.	.	.	8qqdd/	.
2.ryy	8e/L	.	2.ee\	.
.	8e/	.	.	.
.	8f#/	.	.	.
.	8g#/	.	.	.
.	8a/	.	.	.
.	8b/J	.	.	.
=21	=21	=21	=21	=21
.	8qqdd/	.	.	.
2.ryy	(32cc#\LLL	.	8r	.
.	32b\JJ	.	.	.
.	8.cc#\J)	.	.	.
.	.	.	8A/L	.
.	4A/	.	8c#/	.
.	.	.	8e/	.
.	4r	.	8c#/	.
.	.	.	8A/J	.
!	!	!	!LO:LB:g=original	!
=22	=22	=22	=22	=22
!	!LO:N:vis=32.	!	!	!
.	8qqcc#/	.	.	.
2.ryy	32b\LLL	.	8r	.
.	32a\JJ	.	.	.
!	!LO:N:vis=8	!	!	!
.	8.b\J	.	.	.
.	.	.	8e/L	.
.	4e/	.	8g#/	.
.	.	.	8b/	.
.	4r	.	8g#/	.
.	.	.	8e/J	.
=23	=23	=23	=23	=23
!	!LO:TUP:a:problem=klamra łukowa	!	!	!
2.ryy	12cc#\L	.	4a\	.
.	12b\	.	.	.
.	12a\J	.	.	.
!	!LO:TX:t=P:global:problem=niejednoznaczny zapis ozdobnika [przyjęto mordent górny]	!	!	!
.	4g#m/	.	4b\	.
.	4g#m/	.	4B/	.
=24	=24	=24	=24	=24
2.ryy	4f#/	.	4e/	.
.	4b\	.	8gg#\L	.
.	.	.	8bb\J	.
.	4B/	.	(8dd#X\L	.
.	.	.	8ff#\J)	.
=25	=25	=25	=25	=25
2.ryy	4e/	.	4ee\	.
.	4b\	.	(8gg#\L	.
.	.	.	8bb\J)	.
.	4B/	.	(8dd#X\L	.
.	.	.	8ff#\J)	.
=26	=26	=26	=26	=26
2.ryy	4e/	.	4e/ 4b 4ee	.
.	4r	.	4r	.
.	4r	.	4r	.
!	!LO:LB:g=original	!	!	!
=27:|!|:	=27:|!|:;	=27:|!|:	=27:|!|:;	=27:|!|:
*>B	*>B	*	*>B	*
!	!	!LO:DY:a:t=p&colon;	!	!
2.ryy	8e/L	p	2.ee\	.
.	8e/	.	.	.
.	8e/	.	.	.
.	8e/	.	.	.
.	8e/	.	.	.
.	8e/J	.	.	.
=28	=28	=28	=28	=28
*	*tremolo	*	*	*
2.ryy	8f#/L	.	2.dd#X\	.
.	8f#/	.	.	.
.	8f#/	.	.	.
.	8f#/	.	.	.
.	8f#/	.	.	.
.	8f#/J	.	.	.
=29	=29	=29	=29	=29
2.ryy	8g#/L	.	4ddn\	.
.	8g#/	.	.	.
.	8g#/	.	8dd\L	.
.	8g#/	.	16cc#\L	.
.	.	.	16dd\JJ	.
.	8g#/	.	8ee\L	.
.	8g#/J	.	8dd\J	.
=30	=30	=30	=30	=30
.	.	.	8qqdd/	.
2.ryy	8a/L	.	2.cc#\	.
.	8a/	.	.	.
.	8a/	.	.	.
.	8a/	.	.	.
.	8a/	.	.	.
.	8a/J	.	.	.
=31	=31	=31	=31	=31
2.ryy	8d#X/L	.	4ccn\	.
.	8d#/	.	.	.
.	8d#/	.	4.b\	.
.	8d#/	.	.	.
.	8d#/	.	.	.
.	8d#/J	.	8a\	.
*	*Xtremolo	*	*	*
!	!	!	!LO:LB:g=original	!
=32	=32	=32	=32	=32
!	!	!LO:DY:a:t=for	!	!LO:DY:a:t=pi
2.ryy	2.ee\	f	16g#/LL	p
.	.	.	16f#/J	.
.	.	.	8e/J	.
.	.	.	8e/L	.
.	.	.	8e/J	.
.	.	.	8e/L	.
.	.	.	8e/J	.
=33	=33	=33	=33	=33
2.ryy	2.dd#X\	.	8f#/L	.
.	.	.	8f#/	.
.	.	.	8f#/	.
.	.	.	8f#/	.
.	.	.	8f#/	.
.	.	.	8f#/J	.
=34	=34	=34	=34	=34
2.ryy	4ddn\	.	8g#/L	.
.	.	.	8g#/	.
.	8ee\L	.	8g#/	.
.	16cc#\L	.	8g#/	.
.	16dd\JJ	.	.	.
.	8ee\L	.	8g#/	.
.	8dd\J	.	8g#/J	.
=35	=35	=35	=35	=35
.	8qqdd/	.	.	.
2.ryy	2.cc#\	.	8a/L	.
.	.	.	8a/	.
.	.	.	8a/	.
.	.	.	8a/	.
.	.	.	8a/	.
.	.	.	8a/J	.
=36	=36	=36	=36	=36
2.ryy	8ccn\L	.	8d#X/L	.
.	16b\L	.	8d#/	.
.	16cc\JJ	.	.	.
.	2ccM\	.	8d#/	.
.	.	.	8d#/	.
.	.	.	8d#/	.
.	.	.	8d#/J	.
=37	=37	=37	=37	=37
.	8qqcc#/	.	.	.
2.ryy	2.b\	.	2.e/	.
=38	=38	=38	=38	=38
*	*tremolo	*	*	*
.	.	.	8qee/	.
!	!	!LO:DY:a	!	!
2.ryy	8f#/L	p	16dd\LL	.
.	.	.	16cc#\J	.
.	8f#/	.	8dd\J	.
.	8f#/	.	8r	.
.	8f#/	.	8ff#\L	.
.	8f#/	.	8dd\	.
.	8f#/J	.	8b#X\J	.
=39	=39	=39	=39	=39
.	.	.	8qdd/	.
2.ryy	8e/L	.	8cc#\L	.
.	8e/	.	8b#X\J	.
.	.	.	8qqbny/	.
.	8e/	.	2cc#\	.
.	8e/	.	.	.
.	8e/	.	.	.
.	8e/J	.	.	.
=40	=40	=40	=40	=40
2.ryy	8d/L	.	16bn\LL	.
.	.	.	16dd\	.
.	8d/	.	16cc#\	.
.	.	.	16ee\JJ	.
.	.	.	8qqee/	.
.	8d/	.	4dd\	.
.	8d/	.	.	.
.	8d/	.	8cc#\L	.
.	8d/J	.	8b\J	.
!	!	!	!LO:LB:g=original	!
=41	=41	=41	=41	=41
.	.	.	8qb/	.
2.ryy	8c#/L	.	8a/L	.
.	8c#/	.	8g#/J	.
.	.	.	8qqg#/	.
.	8c#/	.	2a/	.
.	8c#/	.	.	.
.	8c#/	.	.	.
.	8c#/J	.	.	.
!	!LO:LB:g=original	!	!	!
=42	=42	=42	=42	=42
2.ryy	8d/L	.	4ff#\	.
.	8d/	.	.	.
.	8d/	.	(16ff#\LL	.
.	.	.	16ee\J)	.
.	8d/	.	8dd|>\J	.
.	8d/	.	(16dd\LL	.
.	.	.	16cc#\J)	.
.	8d/J	.	8b|>\J	.
=43	=43	=43	=43	=43
2.ryy	8d/L	.	4ff#\	.
.	8d/	.	.	.
.	8d/	.	(16ff#\LL	.
.	.	.	16ee\J)	.
.	8d/	.	8dd|>\J	.
.	8d/	.	(16dd\LL	.
.	.	.	16cc#\J)	.
.	8d/J	.	8b|>\J	.
*	*Xtremolo	*	*	*
=44	=44	=44	=44	=44
2.ryy	8d/L	.	4ff#\	.
.	8d/	.	.	.
.	8d/	.	(16ff#\LL	.
.	.	.	16ee\J)	.
.	8d/	.	8dd|>\J	.
.	8d#X/	.	(16dd\LL	.
.	.	.	16cc#\J)	.
.	8d#/J	.	8b|>\J	.
=45	=45	=45	=45	=45
*	*^	*	*	*
2.ryy	8b/L	2.e/	.	2.gg#\	.
.	8b/	.	.	.	.
.	8b/	.	.	.	.
.	8b/	.	.	.	.
.	8b/	.	.	.	.
.	8b/J	.	.	.	.
=46	=46	=46	=46	=46	=46
2.ryy	8cc#/L	2.e/	.	2.aa\	.
.	8cc#/	.	.	.	.
.	8cc#/	.	.	.	.
.	8cc#/	.	.	.	.
.	8cc#/	.	.	.	.
.	8cc#/J	.	.	.	.
=47	=47	=47	=47	=47	=47
2.ryy	8dd/L	2.e/	.	2.bb\	.
.	8dd/	.	.	.	.
.	8dd/	.	.	.	.
.	8dd/	.	.	.	.
.	8dd/	.	.	.	.
.	8dd/J	.	.	.	.
=48	=48	=48	=48	=48	=48
2.ryy	8cc#/L	2.e/	.	2.aa\	.
.	8cc#/	.	.	.	.
.	8cc#/	.	.	.	.
.	8cc#/	.	.	.	.
.	8cc#/	.	.	.	.
.	8cc#/J	.	.	.	.
=49	=49	=49	=49	=49	=49
!	!	!	!	!LO:TX:t=P:problem=mixed beam	!
2.ryy	2e/ 2b	2ryy	.	8.gg#\L	.
.	.	.	.	16e/Jk	.
!	!	!	!	!LO:TX:t=P:problem=mixed beam	!
.	.	.	.	8.e/L	.
.	.	.	.	16aa\Jk	.
.	4cc#/	4f#\	.	4aaM\	.
=50	=50	=50	=50	=50	=50
!	!	!	!	!LO:TX:t=P:problem=mixed beam	!
2.ryy	2dd/	2e\	.	8.bb\L	.
.	.	.	.	16e/Jk	.
.	.	.	.	4e/	.
.	4cc#/	4e\	.	4aa\	.
=51	=51	=51	=51	=51	=51
2.ryy	4cc#/	4e\	.	4aaM\	.
.	8b\L	2ryy	.	4gg#\	.
.	8ee\	.	.	.	.
.	8cc#\	.	.	4r	.
.	8a\J	.	.	.	.
*	*v	*v	*	*	*
!	!	!	!LO:LB:g=original	!
=52	=52	=52	=52	=52
!	!LO:TX:t=P:problem=mixed beam	!	!	!
.	.	.	8qgg#/	.
2.ryy	8dd\L	.	(32ff#\LLL	.
.	.	.	32ee\JJ	.
.	.	.	8.ff#\J)	.
.	8d/	.	.	.
.	8f#/	.	4d/	.
.	8a/	.	.	.
.	8f#/	.	4r	.
.	8d/J	.	.	.
=53	=53	=53	=53	=53
.	.	.	8qff#/	.
2.ryy	8r	.	(32ee\LLL	.
.	.	.	32dd\JJ	.
.	.	.	8.ee\J)	.
.	8A/L	.	.	.
.	8c#/	.	4a\	.
.	8e/	.	.	.
.	8c#/	.	4r	.
.	8A/J	.	.	.
!	!LO:PB:g=original	!	!	!
=54	=54	=54	=54	=54
!	!	!	!LO:TUP:a:problem=klamra łukowa	!
.	.	.	8qgg#/	.
2.ryy	4d/	.	12ff#\L	.
.	.	.	12ee\	.
.	.	.	12dd\J	.
.	4e/	.	4cc#\	.
.	4e/	.	4bM\	.
=55	=55	=55	=55	=55
2.ryy	8A/L	.	2a/	.
.	8a/	.	.	.
.	8b/	.	.	.
.	8cc#/	.	.	.
.	8dd/	.	4r	.
.	8ee/J	.	.	.
=56	=56	=56	=56	=56
.	8qqgg#/	.	.	.
2.ryy	32ff#\LLL	.	8r	.
.	32ee\JJ	.	.	.
.	8.ff#\J	.	.	.
.	.	.	8d/L	.
.	4d/	.	8f#/	.
.	.	.	8a/	.
.	4r	.	8f#/	.
.	.	.	8d/J	.
=57	=57	=57	=57	=57
.	8qqff#/	.	.	.
2.ryy	32ee\LLL	.	8r	.
.	32dd\JJ	.	.	.
.	8.ee\J	.	.	.
.	.	.	8A/L	.
.	4a\	.	8c#/	.
.	.	.	8e/	.
.	4r	.	8c#/	.
.	.	.	8A/J	.
=58	=58	=58	=58	=58
!	!LO:TUP:a:problem=klamra łukowa	!	!	!
2.ryy	12ff#\L	.	4d/	.
.	12ee\	.	.	.
.	12dd\J	.	.	.
.	4cc#\	.	4e/	.
.	4bM\	.	4e/	.
=59	=59	=59	=59	=59
2.ryy	4cc#\	.	4A/	.
.	4e/	.	(8cc#\L	.
.	.	.	8ee\)	.
.	4e/	.	(8g#\	.
.	.	.	8b\J)	.
=60	=60	=60	=60	=60
2.ryy	4A/	.	4a\	.
.	4e/	.	(8cc#\L	.
.	.	.	8ee\)	.
.	4e/	.	(8g#\	.
.	.	.	8b\J)	.
=61	=61	=61	=61	=61
2.ryy	4A/ 4e 4a	.	4A/ 4e 4a	.
.	4r	.	4r	.
.	4r	.	4r	.
=:|!	=:|!;	=:|!	=:|!;	=:|!
*-	*-	*-	*-	*-
!!!system-decoration: [(s1,s2,s3)]
!!!RDF**kern: < = below
!!!RDF**kern: > = above
!!!RDF**kern: | = vertical stroke
!!!ENC: Andrzej Kubiczek
!!!END: 2021-03-10
!!!ENC: Marta Chmielewska
!!!END: 2021-10-28
!!!YEC: Copyright 2022 Narodowy Instytut Fryderyka Chopina (https://polishscores.org)
!!!YEM: License CC-BY-4.0 (https://creativecommons.org/licenses/by/4.0)
